icons/svg/lumx.svg

﻿<?xml version="1.0" encoding="utf-8"?>
<!DOCTYPE svg PUBLIC "-//W3C//DTD SVG 1.1//EN" "http://www.w3.org/Graphics/SVG/1.1/DTD/svg11.dtd">
<svg xmlns="http://www.w3.org/2000/svg" xmlns:xlink="http://www.w3.org/1999/xlink" version="1.1" baseProfile="full" width="24" height="24" viewBox="0 0 24.00 24.00" enable-background="new 0 0 24.00 24.00" xml:space="preserve">
	<path fill="#000000" fill-opacity="1" stroke-linejoin="round" d="M 12.3536,1.74695L 20.1317,9.52513L 13.7678,15.8891L 12.3536,14.4749L 17.3033,9.52513L 10.9393,3.16117L 12.3536,1.74695 Z M 15.8891,9.52513L 14.4749,10.9393L 10.2322,6.69671L 5.28249,11.6465L 3.86827,10.2322L 10.2322,3.86828L 15.8891,9.52513 Z M 10.2322,8.11092L 11.6464,9.52513L 6.6967,14.4749L 13.0607,20.8388L 11.6464,22.253L 3.86827,14.4749L 10.2322,8.11092 Z M 8.11091,14.4749L 9.52513,13.0607L 13.7678,17.3033L 18.7175,12.3536L 20.1317,13.7678L 13.7678,20.1317L 8.11091,14.4749 Z "/>
</svg>

<svg xmlns="http://www.w3.org/2000/svg" version="1.1" baseProfile="full" width="24" height="24" viewBox="0 0 24.00 24.00" xml:space="preserve"><path fill="#000" fill-opacity="1" stroke-linejoin="round" d="M12.354 1.747l7.778 7.778-6.364 6.364-1.414-1.415 4.95-4.95-6.365-6.364 1.414-1.413zm3.535 7.778l-1.415 1.414-4.243-4.243-4.95 4.95-1.414-1.415 6.364-6.364 5.657 5.657zM10.23 8.11l1.414 1.415-4.95 4.95 6.365 6.364-1.414 1.413-7.778-7.778 6.364-6.364zm-2.12 6.365l1.413-1.414 4.243 4.243 4.95-4.95 1.414 1.415-6.364 6.364-5.657-5.657z"/></svg>
